images/50599650.svg

<?xml version="1.0" encoding="UTF-8"?>
<svg xmlns="http://www.w3.org/2000/svg" xmlns:xlink="http://www.w3.org/1999/xlink" width="300pt" height="300pt" viewBox="0 0 300 300" version="1.1">
<defs>
<g>
<symbol overflow="visible" id="glyph0-0">
<path style="stroke:none;" d="M 0.453125 1.59375 L 0.453125 -6.34375 L 4.953125 -6.34375 L 4.953125 1.59375 Z M 0.953125 1.09375 L 4.453125 1.09375 L 4.453125 -5.84375 L 0.953125 -5.84375 Z M 0.953125 1.09375 "/>
</symbol>
<symbol overflow="visible" id="glyph0-1">
<path style="stroke:none;" d="M 0.890625 -6.5625 L 4.65625 -6.5625 L 4.65625 -5.8125 L 1.765625 -5.8125 L 1.765625 -3.875 L 4.375 -3.875 L 4.375 -3.140625 L 1.765625 -3.140625 L 1.765625 0 L 0.890625 0 Z M 0.890625 -6.5625 "/>
</symbol>
<symbol overflow="visible" id="glyph0-2">
<path style="stroke:none;" d="M 0.890625 -6.5625 L 2.078125 -6.5625 L 4.984375 -1.078125 L 4.984375 -6.5625 L 5.84375 -6.5625 L 5.84375 0 L 4.65625 0 L 1.75 -5.484375 L 1.75 0 L 0.890625 0 Z M 0.890625 -6.5625 "/>
</symbol>
<symbol overflow="visible" id="glyph0-3">
<path style="stroke:none;" d="M 0.890625 -6.5625 L 1.765625 -6.5625 L 1.765625 -3.875 L 5 -3.875 L 5 -6.5625 L 5.890625 -6.5625 L 5.890625 0 L 5 0 L 5 -3.125 L 1.765625 -3.125 L 1.765625 0 L 0.890625 0 Z M 0.890625 -6.5625 "/>
</symbol>
<symbol overflow="visible" id="glyph0-4">
<path style="stroke:none;" d="M 3.546875 -5.953125 C 2.898438 -5.953125 2.382812 -5.710938 2 -5.234375 C 1.625 -4.753906 1.4375 -4.101562 1.4375 -3.28125 C 1.4375 -2.445312 1.625 -1.789062 2 -1.3125 C 2.382812 -0.832031 2.898438 -0.59375 3.546875 -0.59375 C 4.191406 -0.59375 4.703125 -0.832031 5.078125 -1.3125 C 5.453125 -1.789062 5.640625 -2.445312 5.640625 -3.28125 C 5.640625 -4.101562 5.453125 -4.753906 5.078125 -5.234375 C 4.703125 -5.710938 4.191406 -5.953125 3.546875 -5.953125 Z M 3.546875 -6.6875 C 4.460938 -6.6875 5.195312 -6.375 5.75 -5.75 C 6.300781 -5.132812 6.578125 -4.3125 6.578125 -3.28125 C 6.578125 -2.238281 6.300781 -1.410156 5.75 -0.796875 C 5.195312 -0.179688 4.460938 0.125 3.546875 0.125 C 2.617188 0.125 1.878906 -0.179688 1.328125 -0.796875 C 0.773438 -1.410156 0.5 -2.238281 0.5 -3.28125 C 0.5 -4.3125 0.773438 -5.132812 1.328125 -5.75 C 1.878906 -6.375 2.617188 -6.6875 3.546875 -6.6875 Z M 3.546875 -6.6875 "/>
</symbol>
</g>
</defs>
<g id="surface23437">
<rect x="0" y="0" width="300" height="300" style="fill:rgb(100%,100%,100%);fill-opacity:1;stroke:none;"/>
<path style="fill:none;stroke-width:1.2;stroke-linecap:butt;stroke-linejoin:miter;stroke:rgb(20%,80%,80%);stroke-opacity:1;stroke-miterlimit:10;" d="M 70.492188 185.609375 L 71.058594 174.457031 "/>
<path style="fill:none;stroke-width:1.2;stroke-linecap:butt;stroke-linejoin:miter;stroke:rgb(0%,0%,0%);stroke-opacity:1;stroke-miterlimit:10;" d="M 71.058594 174.457031 L 71.621094 163.308594 "/>
<path style=" stroke:none;fill-rule:nonzero;fill:rgb(100%,100%,100%);fill-opacity:1;" d="M 67.492188 180.109375 L 73.492188 180.109375 L 73.492188 191.109375 L 67.492188 191.109375 Z M 67.492188 180.109375 "/>
<g style="fill:rgb(20%,80%,80%);fill-opacity:1;">
  <use xlink:href="#glyph0-1" x="67.492188" y="188.772461"/>
</g>
<path style="fill:none;stroke-width:1.2;stroke-linecap:butt;stroke-linejoin:miter;stroke:rgb(0%,0%,0%);stroke-opacity:1;stroke-miterlimit:10;" d="M 71.621094 163.308594 L 52.871094 151.179688 "/>
<path style="fill:none;stroke-width:1.2;stroke-linecap:butt;stroke-linejoin:miter;stroke:rgb(0%,0%,0%);stroke-opacity:1;stroke-miterlimit:10;" d="M 72.597656 157.683594 L 57.601562 147.984375 "/>
<path style="fill:none;stroke-width:1.2;stroke-linecap:butt;stroke-linejoin:miter;stroke:rgb(0%,0%,0%);stroke-opacity:1;stroke-miterlimit:10;" d="M 91.496094 153.132812 L 71.621094 163.308594 "/>
<path style="fill:none;stroke-width:1.2;stroke-linecap:butt;stroke-linejoin:miter;stroke:rgb(0%,0%,0%);stroke-opacity:1;stroke-miterlimit:10;" d="M 52.871094 151.179688 L 54 128.882812 "/>
<path style="fill:none;stroke-width:1.2;stroke-linecap:butt;stroke-linejoin:miter;stroke:rgb(0%,0%,0%);stroke-opacity:1;stroke-miterlimit:10;" d="M 54 128.882812 L 44.625 122.816406 "/>
<path style="fill:none;stroke-width:1.2;stroke-linecap:butt;stroke-linejoin:miter;stroke:rgb(20%,80%,80%);stroke-opacity:1;stroke-miterlimit:10;" d="M 44.625 122.816406 L 35.25 116.753906 "/>
<path style="fill:none;stroke-width:1.2;stroke-linecap:butt;stroke-linejoin:miter;stroke:rgb(0%,0%,0%);stroke-opacity:1;stroke-miterlimit:10;" d="M 54 128.882812 L 73.875 118.707031 "/>
<path style="fill:none;stroke-width:1.2;stroke-linecap:butt;stroke-linejoin:miter;stroke:rgb(0%,0%,0%);stroke-opacity:1;stroke-miterlimit:10;" d="M 58.378906 132.539062 L 74.28125 124.402344 "/>
<path style=" stroke:none;fill-rule:nonzero;fill:rgb(100%,100%,100%);fill-opacity:1;" d="M 29.25 111.253906 L 35.25 111.253906 L 35.25 122.253906 L 29.25 122.253906 Z M 29.25 111.253906 "/>
<g style="fill:rgb(20%,80%,80%);fill-opacity:1;">
  <use xlink:href="#glyph0-1" x="29.25" y="119.916992"/>
</g>
<path style="fill:none;stroke-width:1.2;stroke-linecap:butt;stroke-linejoin:miter;stroke:rgb(0%,0%,0%);stroke-opacity:1;stroke-miterlimit:10;" d="M 73.875 118.707031 L 92.625 130.832031 "/>
<path style="fill:none;stroke-width:1.2;stroke-linecap:butt;stroke-linejoin:miter;stroke:rgb(0%,0%,0%);stroke-opacity:1;stroke-miterlimit:10;" d="M 92.625 130.832031 L 91.496094 153.132812 "/>
<path style="fill:none;stroke-width:1.2;stroke-linecap:butt;stroke-linejoin:miter;stroke:rgb(0%,0%,0%);stroke-opacity:1;stroke-miterlimit:10;" d="M 87.265625 132.796875 L 86.363281 150.640625 "/>
<path style="fill:none;stroke-width:1.2;stroke-linecap:butt;stroke-linejoin:miter;stroke:rgb(0%,0%,0%);stroke-opacity:1;stroke-miterlimit:10;" d="M 91.496094 153.132812 L 110.246094 165.261719 "/>
<path style="fill:none;stroke-width:1.2;stroke-linecap:butt;stroke-linejoin:miter;stroke:rgb(0%,0%,0%);stroke-opacity:1;stroke-miterlimit:10;" d="M 110.246094 165.261719 L 109.683594 176.410156 "/>
<path style="fill:none;stroke-width:1.2;stroke-linecap:butt;stroke-linejoin:miter;stroke:rgb(0%,0%,100%);stroke-opacity:1;stroke-miterlimit:10;" d="M 109.683594 176.410156 L 109.121094 187.5625 "/>
<path style="fill:none;stroke-width:1.2;stroke-linecap:butt;stroke-linejoin:miter;stroke:rgb(0%,0%,0%);stroke-opacity:1;stroke-miterlimit:10;" d="M 115.382812 167.757812 L 114.929688 176.675781 "/>
<path style="fill:none;stroke-width:1.2;stroke-linecap:butt;stroke-linejoin:miter;stroke:rgb(0%,0%,100%);stroke-opacity:1;stroke-miterlimit:10;" d="M 114.929688 176.675781 L 114.480469 185.597656 "/>
<path style="fill:none;stroke-width:1.2;stroke-linecap:butt;stroke-linejoin:miter;stroke:rgb(0%,0%,0%);stroke-opacity:1;stroke-miterlimit:10;" d="M 130.125 155.085938 L 110.246094 165.261719 "/>
<path style="fill:none;stroke-width:1.2;stroke-linecap:butt;stroke-linejoin:miter;stroke:rgb(0%,0%,100%);stroke-opacity:1;stroke-miterlimit:10;" d="M 109.121094 187.5625 L 127.867188 199.6875 "/>
<path style=" stroke:none;fill-rule:nonzero;fill:rgb(100%,100%,100%);fill-opacity:1;" d="M 106.121094 182.0625 L 113.121094 182.0625 L 113.121094 193.0625 L 106.121094 193.0625 Z M 106.121094 182.0625 "/>
<g style="fill:rgb(0%,0%,100%);fill-opacity:1;">
  <use xlink:href="#glyph0-2" x="106.121094" y="190.725586"/>
</g>
<path style="fill:none;stroke-width:1.2;stroke-linecap:butt;stroke-linejoin:miter;stroke:rgb(0%,0%,100%);stroke-opacity:1;stroke-miterlimit:10;" d="M 127.867188 199.6875 L 137.808594 194.601562 "/>
<path style="fill:none;stroke-width:1.2;stroke-linecap:butt;stroke-linejoin:miter;stroke:rgb(0%,0%,0%);stroke-opacity:1;stroke-miterlimit:10;" d="M 137.808594 194.601562 L 147.746094 189.515625 "/>
<path style="fill:none;stroke-width:1.2;stroke-linecap:butt;stroke-linejoin:miter;stroke:rgb(0%,0%,100%);stroke-opacity:1;stroke-miterlimit:10;" d="M 127.460938 193.992188 L 135.414062 189.925781 "/>
<path style="fill:none;stroke-width:1.2;stroke-linecap:butt;stroke-linejoin:miter;stroke:rgb(0%,0%,0%);stroke-opacity:1;stroke-miterlimit:10;" d="M 135.414062 189.925781 L 143.363281 185.855469 "/>
<path style=" stroke:none;fill-rule:nonzero;fill:rgb(100%,100%,100%);fill-opacity:1;" d="M 124.867188 194.1875 L 131.867188 194.1875 L 131.867188 205.1875 L 124.867188 205.1875 Z M 124.867188 194.1875 "/>
<g style="fill:rgb(0%,0%,100%);fill-opacity:1;">
  <use xlink:href="#glyph0-2" x="124.867188" y="202.850586"/>
</g>
<path style="fill:none;stroke-width:1.2;stroke-linecap:butt;stroke-linejoin:miter;stroke:rgb(0%,0%,0%);stroke-opacity:1;stroke-miterlimit:10;" d="M 147.746094 189.515625 L 148.871094 167.214844 "/>
<path style="fill:none;stroke-width:1.2;stroke-linecap:butt;stroke-linejoin:miter;stroke:rgb(0%,0%,0%);stroke-opacity:1;stroke-miterlimit:10;" d="M 148.871094 167.214844 L 168.75 157.039062 "/>
<path style="fill:none;stroke-width:1.2;stroke-linecap:butt;stroke-linejoin:miter;stroke:rgb(0%,0%,0%);stroke-opacity:1;stroke-miterlimit:10;" d="M 130.125 155.085938 L 148.871094 167.214844 "/>
<path style="fill:none;stroke-width:1.2;stroke-linecap:butt;stroke-linejoin:miter;stroke:rgb(0%,0%,0%);stroke-opacity:1;stroke-miterlimit:10;" d="M 129.144531 160.710938 L 144.144531 170.414062 "/>
<path style="fill:none;stroke-width:1.2;stroke-linecap:butt;stroke-linejoin:miter;stroke:rgb(0%,0%,0%);stroke-opacity:1;stroke-miterlimit:10;" d="M 168.75 157.039062 L 169.875 134.738281 "/>
<path style="fill:none;stroke-width:1.2;stroke-linecap:butt;stroke-linejoin:miter;stroke:rgb(0%,0%,0%);stroke-opacity:1;stroke-miterlimit:10;" d="M 163.613281 154.542969 L 164.515625 136.703125 "/>
<path style="fill:none;stroke-width:1.2;stroke-linecap:butt;stroke-linejoin:miter;stroke:rgb(0%,0%,0%);stroke-opacity:1;stroke-miterlimit:10;" d="M 169.875 134.738281 L 179.816406 129.652344 "/>
<path style="fill:none;stroke-width:1.2;stroke-linecap:butt;stroke-linejoin:miter;stroke:rgb(0%,0%,100%);stroke-opacity:1;stroke-miterlimit:10;" d="M 179.816406 129.652344 L 189.753906 124.566406 "/>
<path style="fill:none;stroke-width:1.2;stroke-linecap:butt;stroke-linejoin:miter;stroke:rgb(0%,0%,0%);stroke-opacity:1;stroke-miterlimit:10;" d="M 169.875 134.738281 L 151.128906 122.613281 "/>
<path style="fill:none;stroke-width:1.2;stroke-linecap:butt;stroke-linejoin:miter;stroke:rgb(0%,0%,100%);stroke-opacity:1;stroke-miterlimit:10;" d="M 189.753906 124.566406 L 199.128906 130.628906 "/>
<path style="fill:none;stroke-width:1.2;stroke-linecap:butt;stroke-linejoin:miter;stroke:rgb(0%,0%,0%);stroke-opacity:1;stroke-miterlimit:10;" d="M 199.128906 130.628906 L 208.503906 136.691406 "/>
<path style=" stroke:none;fill-rule:nonzero;fill:rgb(100%,100%,100%);fill-opacity:1;" d="M 182.753906 119.066406 L 196.753906 119.066406 L 196.753906 130.066406 L 182.753906 130.066406 Z M 182.753906 119.066406 "/>
<g style="fill:rgb(0%,0%,100%);fill-opacity:1;">
  <use xlink:href="#glyph0-2" x="182.753906" y="127.729492"/>
  <use xlink:href="#glyph0-3" x="189.731445" y="127.729492"/>
</g>
<path style="fill:none;stroke-width:1.2;stroke-linecap:butt;stroke-linejoin:miter;stroke:rgb(0%,0%,0%);stroke-opacity:1;stroke-miterlimit:10;" d="M 208.503906 136.691406 L 207.9375 147.84375 "/>
<path style="fill:none;stroke-width:1.2;stroke-linecap:butt;stroke-linejoin:miter;stroke:rgb(0%,0%,100%);stroke-opacity:1;stroke-miterlimit:10;" d="M 207.9375 147.84375 L 207.375 158.992188 "/>
<path style="fill:none;stroke-width:1.2;stroke-linecap:butt;stroke-linejoin:miter;stroke:rgb(0%,0%,0%);stroke-opacity:1;stroke-miterlimit:10;" d="M 213.636719 139.1875 L 213.1875 148.105469 "/>
<path style="fill:none;stroke-width:1.2;stroke-linecap:butt;stroke-linejoin:miter;stroke:rgb(0%,0%,100%);stroke-opacity:1;stroke-miterlimit:10;" d="M 213.1875 148.105469 L 212.734375 157.027344 "/>
<path style="fill:none;stroke-width:1.2;stroke-linecap:butt;stroke-linejoin:miter;stroke:rgb(0%,0%,0%);stroke-opacity:1;stroke-miterlimit:10;" d="M 228.378906 126.519531 L 208.503906 136.691406 "/>
<path style="fill:none;stroke-width:1.2;stroke-linecap:butt;stroke-linejoin:miter;stroke:rgb(0%,0%,100%);stroke-opacity:1;stroke-miterlimit:10;" d="M 207.375 158.992188 L 216.75 165.054688 "/>
<path style="fill:none;stroke-width:1.2;stroke-linecap:butt;stroke-linejoin:miter;stroke:rgb(0%,0%,0%);stroke-opacity:1;stroke-miterlimit:10;" d="M 216.75 165.054688 L 226.125 171.117188 "/>
<path style=" stroke:none;fill-rule:nonzero;fill:rgb(100%,100%,100%);fill-opacity:1;" d="M 204.375 153.492188 L 211.375 153.492188 L 211.375 164.492188 L 204.375 164.492188 Z M 204.375 153.492188 "/>
<g style="fill:rgb(0%,0%,100%);fill-opacity:1;">
  <use xlink:href="#glyph0-2" x="204.375" y="162.155273"/>
</g>
<path style="fill:none;stroke-width:1.2;stroke-linecap:butt;stroke-linejoin:miter;stroke:rgb(0%,0%,0%);stroke-opacity:1;stroke-miterlimit:10;" d="M 226.125 171.117188 L 246 160.945312 "/>
<path style="fill:none;stroke-width:1.2;stroke-linecap:butt;stroke-linejoin:miter;stroke:rgb(0%,0%,0%);stroke-opacity:1;stroke-miterlimit:10;" d="M 225.71875 165.425781 L 241.621094 157.285156 "/>
<path style="fill:none;stroke-width:1.2;stroke-linecap:butt;stroke-linejoin:miter;stroke:rgb(0%,0%,0%);stroke-opacity:1;stroke-miterlimit:10;" d="M 246 160.945312 L 255.375 167.007812 "/>
<path style="fill:none;stroke-width:1.2;stroke-linecap:butt;stroke-linejoin:miter;stroke:rgb(20%,80%,80%);stroke-opacity:1;stroke-miterlimit:10;" d="M 255.375 167.007812 L 264.75 173.070312 "/>
<path style="fill:none;stroke-width:1.2;stroke-linecap:butt;stroke-linejoin:miter;stroke:rgb(0%,0%,0%);stroke-opacity:1;stroke-miterlimit:10;" d="M 246 160.945312 L 247.128906 138.644531 "/>
<path style=" stroke:none;fill-rule:nonzero;fill:rgb(100%,100%,100%);fill-opacity:1;" d="M 261.75 167.570312 L 267.75 167.570312 L 267.75 178.570312 L 261.75 178.570312 Z M 261.75 167.570312 "/>
<g style="fill:rgb(20%,80%,80%);fill-opacity:1;">
  <use xlink:href="#glyph0-1" x="261.75" y="176.233398"/>
</g>
<path style="fill:none;stroke-width:1.2;stroke-linecap:butt;stroke-linejoin:miter;stroke:rgb(0%,0%,0%);stroke-opacity:1;stroke-miterlimit:10;" d="M 247.128906 138.644531 L 228.378906 126.519531 "/>
<path style="fill:none;stroke-width:1.2;stroke-linecap:butt;stroke-linejoin:miter;stroke:rgb(0%,0%,0%);stroke-opacity:1;stroke-miterlimit:10;" d="M 242.398438 141.84375 L 227.402344 132.140625 "/>
<path style="fill:none;stroke-width:1.2;stroke-linecap:butt;stroke-linejoin:miter;stroke:rgb(0%,0%,0%);stroke-opacity:1;stroke-miterlimit:10;" d="M 228.378906 126.519531 L 228.941406 115.367188 "/>
<path style="fill:none;stroke-width:1.2;stroke-linecap:butt;stroke-linejoin:miter;stroke:rgb(20%,80%,80%);stroke-opacity:1;stroke-miterlimit:10;" d="M 228.941406 115.367188 L 229.507812 104.21875 "/>
<path style=" stroke:none;fill-rule:nonzero;fill:rgb(100%,100%,100%);fill-opacity:1;" d="M 226.507812 98.71875 L 232.507812 98.71875 L 232.507812 109.71875 L 226.507812 109.71875 Z M 226.507812 98.71875 "/>
<g style="fill:rgb(20%,80%,80%);fill-opacity:1;">
  <use xlink:href="#glyph0-1" x="226.507812" y="107.381836"/>
</g>
<path style="fill:none;stroke-width:1.2;stroke-linecap:butt;stroke-linejoin:miter;stroke:rgb(0%,0%,0%);stroke-opacity:1;stroke-miterlimit:10;" d="M 153.75 122.746094 L 154.316406 111.59375 "/>
<path style="fill:none;stroke-width:1.2;stroke-linecap:butt;stroke-linejoin:miter;stroke:rgb(100%,0%,0%);stroke-opacity:1;stroke-miterlimit:10;" d="M 154.316406 111.59375 L 154.878906 100.445312 "/>
<path style="fill:none;stroke-width:1.2;stroke-linecap:butt;stroke-linejoin:miter;stroke:rgb(0%,0%,0%);stroke-opacity:1;stroke-miterlimit:10;" d="M 148.503906 122.480469 L 149.066406 111.328125 "/>
<path style="fill:none;stroke-width:1.2;stroke-linecap:butt;stroke-linejoin:miter;stroke:rgb(100%,0%,0%);stroke-opacity:1;stroke-miterlimit:10;" d="M 149.066406 111.328125 L 149.632812 100.179688 "/>
<path style="fill:none;stroke-width:1.2;stroke-linecap:butt;stroke-linejoin:miter;stroke:rgb(0%,0%,0%);stroke-opacity:1;stroke-miterlimit:10;" d="M 151.128906 122.613281 L 141.1875 127.699219 "/>
<path style="fill:none;stroke-width:1.2;stroke-linecap:butt;stroke-linejoin:miter;stroke:rgb(0%,0%,100%);stroke-opacity:1;stroke-miterlimit:10;" d="M 141.1875 127.699219 L 131.25 132.785156 "/>
<path style=" stroke:none;fill-rule:nonzero;fill:rgb(100%,100%,100%);fill-opacity:1;" d="M 148.253906 94.8125 L 156.253906 94.8125 L 156.253906 105.8125 L 148.253906 105.8125 Z M 148.253906 94.8125 "/>
<g style="fill:rgb(100%,0%,0%);fill-opacity:1;">
  <use xlink:href="#glyph0-4" x="148.253906" y="103.475586"/>
</g>
<path style="fill:none;stroke-width:1.2;stroke-linecap:butt;stroke-linejoin:miter;stroke:rgb(0%,0%,100%);stroke-opacity:1;stroke-miterlimit:10;" d="M 131.25 132.785156 L 130.6875 143.9375 "/>
<path style="fill:none;stroke-width:1.2;stroke-linecap:butt;stroke-linejoin:miter;stroke:rgb(0%,0%,0%);stroke-opacity:1;stroke-miterlimit:10;" d="M 130.6875 143.9375 L 130.125 155.085938 "/>
<path style="fill:none;stroke-width:1.2;stroke-linecap:butt;stroke-linejoin:miter;stroke:rgb(0%,0%,100%);stroke-opacity:1;stroke-miterlimit:10;" d="M 131.25 132.785156 L 121.875 126.722656 "/>
<path style="fill:none;stroke-width:1.2;stroke-linecap:butt;stroke-linejoin:miter;stroke:rgb(0%,0%,0%);stroke-opacity:1;stroke-miterlimit:10;" d="M 121.875 126.722656 L 112.5 120.660156 "/>
<path style=" stroke:none;fill-rule:nonzero;fill:rgb(100%,100%,100%);fill-opacity:1;" d="M 128.25 127.285156 L 135.25 127.285156 L 135.25 138.285156 L 128.25 138.285156 Z M 128.25 127.285156 "/>
<g style="fill:rgb(0%,0%,100%);fill-opacity:1;">
  <use xlink:href="#glyph0-2" x="128.25" y="135.948242"/>
</g>
</g>
</svg>

<svg xmlns="http://www.w3.org/2000/svg" xmlns:xlink="http://www.w3.org/1999/xlink" width="300pt" height="300pt" viewBox="0 0 300 300"><defs><symbol overflow="visible"><path d="M.453 1.594v-7.938h4.5v7.938zm.5-.5h3.5v-6.938h-3.5zm0 0"/></symbol><symbol overflow="visible" id="a"><path d="M.89-6.563h3.766v.75h-2.89v1.938h2.61v.734h-2.61V0H.89zm0 0"/></symbol><symbol overflow="visible" id="b"><path d="M.89-6.563H2.08l2.906 5.485v-5.484h.86V0H4.656L1.75-5.484V0H.89zm0 0"/></symbol><symbol overflow="visible" id="c"><path d="M.89-6.563h.876v2.688H5v-2.688h.89V0H5v-3.125H1.766V0H.89zm0 0"/></symbol><symbol overflow="visible" id="d"><path d="M3.547-5.953c-.65 0-1.164.242-1.547.72-.375.48-.563 1.13-.563 1.952 0 .835.188 1.49.563 1.967.383.48.898.72 1.547.72.644 0 1.156-.24 1.53-.72.376-.476.564-1.132.564-1.968 0-.822-.187-1.474-.562-1.954-.375-.477-.887-.72-1.53-.72zm0-.734c.914 0 1.648.312 2.203.937.55.617.828 1.438.828 2.47 0 1.042-.277 1.87-.828 2.483-.555.617-1.29.922-2.203.922-.93 0-1.668-.305-2.22-.922C.774-1.41.5-2.237.5-3.28c0-1.033.273-1.853.828-2.47.55-.625 1.29-.938 2.22-.938zm0 0"/></symbol></defs><g><path fill="#fff" d="M0 0h300v300H0z"/><path d="M70.492 185.61l.567-11.153" stroke-width="1.2" stroke="#3cc" stroke-miterlimit="10" fill="none"/><path d="M71.06 174.457l.56-11.148" stroke-width="1.2" stroke="#000" stroke-miterlimit="10" fill="none"/><path d="M67.492 180.11h6v11h-6zm0 0" fill="#fff"/><use xlink:href="#a" x="67.492" y="188.772" fill="#3cc"/><path d="M71.62 163.31l-18.75-12.13M72.598 157.684l-14.996-9.7M91.496 153.133L71.62 163.31M52.87 151.18L54 128.883M54 128.883l-9.375-6.067" stroke-width="1.2" stroke="#000" stroke-miterlimit="10" fill="none"/><path d="M44.625 122.816l-9.375-6.062" stroke-width="1.2" stroke="#3cc" stroke-miterlimit="10" fill="none"/><path d="M54 128.883l19.875-10.176M58.38 132.54l15.9-8.138" stroke-width="1.2" stroke="#000" stroke-miterlimit="10" fill="none"/><path d="M29.25 111.254h6v11h-6zm0 0" fill="#fff"/><use xlink:href="#a" x="29.25" y="119.917" fill="#3cc"/><path d="M73.875 118.707l18.75 12.125M92.625 130.832l-1.13 22.3M87.266 132.797l-.903 17.844M91.496 153.133l18.75 12.13M110.246 165.262l-.562 11.148" stroke-width="1.2" stroke="#000" stroke-miterlimit="10" fill="none"/><path d="M109.684 176.41l-.563 11.153" stroke-width="1.2" stroke="#00f" stroke-miterlimit="10" fill="none"/><path d="M115.383 167.758l-.453 8.918" stroke-width="1.2" stroke="#000" stroke-miterlimit="10" fill="none"/><path d="M114.93 176.676l-.45 8.922" stroke-width="1.2" stroke="#00f" stroke-miterlimit="10" fill="none"/><path d="M130.125 155.086l-19.88 10.176" stroke-width="1.2" stroke="#000" stroke-miterlimit="10" fill="none"/><path d="M109.12 187.563l18.747 12.125" stroke-width="1.2" stroke="#00f" stroke-miterlimit="10" fill="none"/><path d="M106.12 182.063h7v11h-7zm0 0" fill="#fff"/><use xlink:href="#b" x="106.121" y="190.726" fill="#00f"/><path d="M127.867 199.688l9.942-5.086" stroke-width="1.2" stroke="#00f" stroke-miterlimit="10" fill="none"/><path d="M137.81 194.602l9.936-5.086" stroke-width="1.2" stroke="#000" stroke-miterlimit="10" fill="none"/><path d="M127.46 193.992l7.954-4.066" stroke-width="1.2" stroke="#00f" stroke-miterlimit="10" fill="none"/><path d="M135.414 189.926l7.95-4.07" stroke-width="1.2" stroke="#000" stroke-miterlimit="10" fill="none"/><path d="M124.867 194.188h7v11h-7zm0 0" fill="#fff"/><use xlink:href="#b" x="124.867" y="202.851" fill="#00f"/><path d="M147.746 189.516l1.125-22.3M148.87 167.215l19.88-10.176M130.125 155.086l18.746 12.13M129.145 160.71l15 9.704M168.75 157.04l1.125-22.302M163.613 154.543l.903-17.84M169.875 134.738l9.94-5.086" stroke-width="1.2" stroke="#000" stroke-miterlimit="10" fill="none"/><path d="M179.816 129.652l9.938-5.086" stroke-width="1.2" stroke="#00f" stroke-miterlimit="10" fill="none"/><path d="M169.875 134.738l-18.746-12.125" stroke-width="1.2" stroke="#000" stroke-miterlimit="10" fill="none"/><path d="M189.754 124.566l9.375 6.063" stroke-width="1.2" stroke="#00f" stroke-miterlimit="10" fill="none"/><path d="M199.13 130.63l9.374 6.06" stroke-width="1.2" stroke="#000" stroke-miterlimit="10" fill="none"/><path d="M182.754 119.066h14v11h-14zm0 0" fill="#fff"/><g fill="#00f"><use xlink:href="#b" x="182.754" y="127.729"/><use xlink:href="#c" x="189.731" y="127.729"/></g><path d="M208.504 136.69l-.566 11.154" stroke-width="1.2" stroke="#000" stroke-miterlimit="10" fill="none"/><path d="M207.938 147.844l-.563 11.148" stroke-width="1.2" stroke="#00f" stroke-miterlimit="10" fill="none"/><path d="M213.637 139.188l-.45 8.917" stroke-width="1.2" stroke="#000" stroke-miterlimit="10" fill="none"/><path d="M213.188 148.105l-.454 8.922" stroke-width="1.2" stroke="#00f" stroke-miterlimit="10" fill="none"/><path d="M228.38 126.52l-19.876 10.17" stroke-width="1.2" stroke="#000" stroke-miterlimit="10" fill="none"/><path d="M207.375 158.992l9.375 6.063" stroke-width="1.2" stroke="#00f" stroke-miterlimit="10" fill="none"/><path d="M216.75 165.055l9.375 6.062" stroke-width="1.2" stroke="#000" stroke-miterlimit="10" fill="none"/><path d="M204.375 153.492h7v11h-7zm0 0" fill="#fff"/><use xlink:href="#b" x="204.375" y="162.155" fill="#00f"/><path d="M226.125 171.117L246 160.945M225.72 165.426l15.9-8.14M246 160.945l9.375 6.063" stroke-width="1.2" stroke="#000" stroke-miterlimit="10" fill="none"/><path d="M255.375 167.008l9.375 6.062" stroke-width="1.2" stroke="#3cc" stroke-miterlimit="10" fill="none"/><path d="M246 160.945l1.13-22.3" stroke-width="1.2" stroke="#000" stroke-miterlimit="10" fill="none"/><path d="M261.75 167.57h6v11h-6zm0 0" fill="#fff"/><use xlink:href="#a" x="261.75" y="176.233" fill="#3cc"/><path d="M247.13 138.645l-18.75-12.125M242.398 141.844l-14.996-9.703M228.38 126.52l.56-11.153" stroke-width="1.2" stroke="#000" stroke-miterlimit="10" fill="none"/><path d="M228.94 115.367l.568-11.148" stroke-width="1.2" stroke="#3cc" stroke-miterlimit="10" fill="none"/><path d="M226.508 98.72h6v11h-6zm0 0" fill="#fff"/><use xlink:href="#a" x="226.508" y="107.382" fill="#3cc"/><path d="M153.75 122.746l.566-11.152" stroke-width="1.2" stroke="#000" stroke-miterlimit="10" fill="none"/><path d="M154.316 111.594l.563-11.15" stroke-width="1.2" stroke="#f00" stroke-miterlimit="10" fill="none"/><path d="M148.504 122.48l.562-11.152" stroke-width="1.2" stroke="#000" stroke-miterlimit="10" fill="none"/><path d="M149.066 111.328l.567-11.148" stroke-width="1.2" stroke="#f00" stroke-miterlimit="10" fill="none"/><path d="M151.13 122.613l-9.942 5.086" stroke-width="1.2" stroke="#000" stroke-miterlimit="10" fill="none"/><path d="M141.188 127.7l-9.938 5.085" stroke-width="1.2" stroke="#00f" stroke-miterlimit="10" fill="none"/><path d="M148.254 94.813h8v11h-8zm0 0" fill="#fff"/><use xlink:href="#d" x="148.254" y="103.476" fill="#f00"/><path d="M131.25 132.785l-.563 11.153" stroke-width="1.2" stroke="#00f" stroke-miterlimit="10" fill="none"/><path d="M130.688 143.938l-.563 11.148" stroke-width="1.2" stroke="#000" stroke-miterlimit="10" fill="none"/><path d="M131.25 132.785l-9.375-6.062" stroke-width="1.2" stroke="#00f" stroke-miterlimit="10" fill="none"/><path d="M121.875 126.723l-9.375-6.063" stroke-width="1.2" stroke="#000" stroke-miterlimit="10" fill="none"/><path d="M128.25 127.285h7v11h-7zm0 0" fill="#fff"/><use xlink:href="#b" x="128.25" y="135.948" fill="#00f"/></g></svg>
